!!!!SEGMENT: pl-sa--552-a-ix-32--011_anonim--anglaise.krn
!!!cenid: 18xx:522
!!!COM: Anonim
!!!COM-rismid: pe30004985
!!!CDT:
!!!CNT:
!!!OTL: Anglaise
!!!PDT:
!!!AGN: Secular; Anglaise
!!!SMS-siglum: PL-SA
!!!SMS-shelfmark: 552/A IX 32
!!!SMS-shelfwork: 011 W
!!!SMS-variant:
!!!SMS-altvar:
!!!NIFC-rismid: 1001069503
!!!system-decoration: {(s1,s2)}
**kern	**kern
*part1	*part1
*staff2	*staff1
*Ipiano	*Ipiano
*I"Piano	*I"Piano
*clefG2	*clefG2
*k[]	*k[]
*C:	*C:
*M2/4	*M2/4
*>[A,A,B,B]	*>[A,A,B,B]
=1	=1
*>A	*>A
8.eL 8.c/	8ee\L
.	8cc\
8.g/J	.
.	8ee\
!LO:TX:a:t=P:w całym źródle brak wpisanej pauzy na ostatnią wartość taktu (global):problem	!
8ryy	8cc\J
=2	=2
8.dL 8.B/	16dd\LL
.	16gg\
.	16ff\
8.g/J	16ee\JJ
.	8ff\L
8ryy	8dd\J
=3	=3
*rep	*
8.dL 8.B/	8dd\L
.	8b\
8.g/J	.
.	8dd\
8ryy	8b\J
*Xrep	*
=4	=4
8.eL 8.c/	16dd\LL
.	16ff\
.	16ee\
8.g/J	16dd\JJ
.	8ee\L
8ryy	8cc\J
=5:|!|:	=5:|!|:
*>B	*>B
8.eL 8.c/	16gg\LL
.	16aa\
.	16gg\
8.g/J	16ff\JJ
.	8ee\L
8ryy	8ccc\J
=6	=6
8.fL 8.d/	16aa\LL
.	16bb\
.	16aa\
8.a/J	16gg\JJ
.	8aa\L
8ryy	8ff\J
=7	=7
8.dL 8.B/	16dd\LL
.	16ee\
.	16dd\
8.f/J	16cc\JJ
.	8b\L
8ryy	8gg\J
=8	=8
8.eL 8.c/	16ee\LL
.	16ff\
.	16ee\
8.g/J	16dd\JJ
.	8ee\L
8ryy	8cc\J
==:|!	==:|!
*-	*-
!!title: @{OTL};
!!!RDF**kern: > = above
!!!RDF**kern: < = below
!!!EED: Wojciech Jakubiak-Danek
!!!EST: 2020-10-12
!!!URL-scan: http://bc.bdsandomierz.pl/dlibra/publication/1308/edition/1276/content
!!!ONB-nifc: Str. 7, s. 2
!!!AIN: 1 empty
!!!ENC: Anastazja Marusiak
!!!END: 2020-06-17
